X:1
T:Less of Self and More of Jesus
T:Less of Self and More of Jesus
T:Charles Hutchinson Gabriel
T:Henry Barnett Beigle (1818–1895)
T:Public Domain Courtesy of the Cyber Hymnal™
T:Public Domain Courtesy of the Cyber Hymnal™
C:Charles Hutchinson Gabriel
Z:Public Domain
Z:Courtesy of the Cyber Hymnal™
%%score 1 ( 2 3 )
L:1/8
Q:1/4=95
M:3/4
K:Bb
V:1 treble 
V:2 bass 
V:3 bass 
V:1
 F>G | F3 D F>G x | F2 E2 E>F | E3 E E>F x | D4 _A>A | G3 E GE x | D2 D2 F>B | A3 B c>B x | %8
w: 1.~Less of|self and more of|Je- sus, Less of|man and more of|God; Ear- nest|prayer of ma- ny|work- ers In the|vine- yard of the|
w: 2.~Less of|self and more of|Je- sus, Pleads the|saint in ear- nest|prayer, For he|la- bors souls to|res- cue From the|tempt- er’s cru- el|
w: 3.~Less of|self and more of|Je- sus, As in|so- cial life we|meet; May the|beau- ties of sal-|va- tion O- thers|lead to Je- sus’|
 A4 F>G | F3 D F>G x | F2 E2 E>F | E3 E E>F x | D4 _A>A | G3 E GE x | D2 D2 F>G | E3 E E>F | D4 || %17
w: Lord. Less of|self and more of|Je- sus Girds the|soul with ho- ly|pow’r, Bright- ens|life, and sweet- ens|la- bor, In the|use of ev- ery|hour.|
w: snare. Self con-|cealed, faith works its|won- ders, Trusts the|mer- it of the|blood; Claims for|Christ the sin- ner’s|ran- som, Leads the|pen- i- tent to|God.|
w: feet. Not in|vain ex- alt we|Je- sus, Not in|vain hide self a-|way; Great the|joy and sweet the|plea- sure Heav- en|grants us on our|way.|
"^Refrain" _A>A | G3 G G>_G | F2 F2 D>E | F3 B d>B | A4 F>G | F3 D F>^F x | G2 G2 F>E | D3 F F>E | %25
w: ||||||||
w: Less of|self and more of|Je- sus; Less of|man and more of|God; Ear- nest|prayer of ma- ny|work- ers In the|vine- yard of the|
w: ||||||||
 D4 |] %26
w: |
w: Lord.|
w: |
V:2
 D>E | D3 z F,D>E | D2 [F,A,C]2 C>D | C3 z F,C>D | [B,,F,B,]4 B,>C | B,3 z G,B,G, | %6
 [B,,F,]2 [B,,F,B,]2 D>D | C3 z D[F,A,E]>[F,B,D] | [F,,F,C]4 D>E | D3 z D>E x | D2 [F,A,C]2 C>D | %11
 C3 z C>D x | [B,,F,B,]4 B,>C | B,3 z G,B,G, | [B,,F,]2 [B,,F,B,]2 D>E | C3 C>E x | [B,,F,B,]4 || %17
 [D,B,]>[D,B,] | E3 [G,B,] [E,B,E]>[E,B,] | [B,,B,D]2 [B,,B,D]2 B,>C | D3 [F,D] [B,,B,F]>[B,,F,D] | %21
 C4 D>E | D3 z D>D x | C2 [E,B,]2 A,>G, | [F,,F,]3 [F,B,D] [F,B,D]>[F,C] | [B,,F,B,]4 |] %26
V:3
 x2 | (B,,F, B,2 [B,,B,]2) x | (F,,F,) x4 | (F,,F, A,2 [F,A,]2) x | x6 | E,,B,, E,2 x3 | x6 | %7
 F,,C, D,2 x3 | x6 | (B,,F, B,2 F,) [B,,B,]2 | (F,,F,) x4 | (F,,F, A,2 F,) [F,A,]2 | x4 B,,2 | %13
 (E,,B,, E,2 E,2) x | x6 | (F,,C, A,)F, [F,A,]2 | x4 || x2 | (E,,B,, E,) x3 | x6 | (B,,F, B,) x3 | %21
 (F,,C, D,2) x2 | (B,,F, B,2 F,) [B,,B,]2 | (E,,B,,) x E,2 x | x6 | x4 |] %26

